resources/icons/20px/one-to-many.svg

<svg width="20" height="20" viewBox="0 0 20 20" fill="none" xmlns="http://www.w3.org/2000/svg">
<path d="M18 2.99999C18 2.73477 17.8947 2.48042 17.7071 2.29288C17.5196 2.10535 17.2652 1.99999 17 1.99999C16.7348 1.99999 16.4804 2.10535 16.2929 2.29288C16.1054 2.48042 16 2.73477 16 2.99999C16 3.26521 16.1054 3.51956 16.2929 3.7071C16.4804 3.89463 16.7348 3.99999 17 3.99999C17.2652 3.99999 17.5196 3.89463 17.7071 3.7071C17.8947 3.51956 18 3.26521 18 2.99999ZM14.18 4.02799C13.611 4.06644 13.0501 4.18321 12.513 4.37499C11.566 4.72699 10.74 5.37499 10.481 6.69299C10.158 8.33699 9.24701 9.36799 8.21701 9.99999C9.24701 10.632 10.158 11.663 10.481 13.307C10.74 14.625 11.566 15.273 12.513 15.625C13.094 15.842 13.693 15.933 14.181 15.972C14.4237 15.3071 14.8935 14.7494 15.5075 14.3974C16.1215 14.0453 16.8402 13.9216 17.5365 14.0481C18.2329 14.1746 18.8622 14.5432 19.3131 15.0887C19.7641 15.6342 20.0077 16.3215 20.001 17.0293C19.9943 17.737 19.7377 18.4196 19.2764 18.9564C18.8152 19.4933 18.1791 19.8498 17.4805 19.9631C16.7818 20.0764 16.0656 19.9391 15.4584 19.5755C14.8512 19.2119 14.392 18.6453 14.162 17.976C13.529 17.934 12.671 17.818 11.815 17.5C10.413 16.977 8.94701 15.875 8.51901 13.693C8.26001 12.375 7.43401 11.727 6.48701 11.375C6.25196 11.287 6.01061 11.2168 5.76501 11.165C5.4961 11.8031 5.0147 12.3286 4.40248 12.6522C3.79027 12.9758 3.08495 13.0777 2.40618 12.9405C1.72742 12.8034 1.11701 12.4356 0.678516 11.8996C0.240025 11.3636 0.000457764 10.6925 0.000457764 9.99999C0.000457764 9.3075 0.240025 8.63633 0.678516 8.10036C1.11701 7.56439 1.72742 7.19662 2.40618 7.05944C3.08495 6.92226 3.79027 7.02413 4.40248 7.34776C5.0147 7.67139 5.4961 8.19685 5.76501 8.83499C6.00435 8.78432 6.24501 8.71432 6.48701 8.62499C7.43401 8.27299 8.26001 7.62499 8.51901 6.30699C8.94701 4.12499 10.413 3.02299 11.815 2.49999C12.671 2.18199 13.529 2.06599 14.162 2.02399C14.3934 1.35307 14.8551 0.785877 15.4651 0.423121C16.0751 0.0603648 16.7939 -0.0744737 17.4939 0.0425501C18.1938 0.159574 18.8297 0.520886 19.2885 1.06233C19.7473 1.60377 19.9994 2.29029 20 2.99999C20.0011 3.70592 19.7532 4.3896 19.2999 4.93078C18.8466 5.47196 18.217 5.83596 17.5218 5.95874C16.8267 6.08153 16.1105 5.95524 15.4992 5.6021C14.888 5.24895 14.4209 4.69156 14.18 4.02799ZM4.00001 9.99999C3.99975 9.73486 3.89421 9.48069 3.70659 9.29335C3.51898 9.10602 3.26465 9.00086 2.99952 9.00099C2.73439 9.00112 2.48016 9.10654 2.29273 9.29406C2.1053 9.48158 2.00002 9.73586 2.00002 10.001C2.00002 10.2661 2.1053 10.5204 2.29273 10.7079C2.48016 10.8954 2.73439 11.0009 2.99952 11.001C3.26465 11.0011 3.51898 10.896 3.70659 10.7086C3.89421 10.5213 3.99975 10.2671 4.00001 10.002V9.99999ZM17 18C17.2652 18 17.5196 17.8946 17.7071 17.7071C17.8947 17.5196 18 17.2652 18 17C18 16.7348 17.8947 16.4804 17.7071 16.2929C17.5196 16.1053 17.2652 16 17 16C16.7348 16 16.4804 16.1053 16.2929 16.2929C16.1054 16.4804 16 16.7348 16 17C16 17.2652 16.1054 17.5196 16.2929 17.7071C16.4804 17.8946 16.7348 18 17 18Z" fill="black"/>
</svg>

<svg xmlns="http://www.w3.org/2000/svg" viewBox="0 0 20 20">
  <path d="M18 3a1 1 0 1 0-2 0 1 1 0 0 0 2 0m-3.82 1.028a6.2 6.2 0 0 0-1.667.347c-.947.352-1.773 1-2.032 2.318C10.158 8.337 9.247 9.368 8.217 10c1.03.632 1.941 1.663 2.264 3.307.259 1.318 1.085 1.966 2.032 2.318.581.217 1.18.308 1.668.347a3.001 3.001 0 1 1-.019 2.004c-.633-.042-1.491-.158-2.347-.476-1.402-.523-2.868-1.625-3.296-3.807-.259-1.318-1.085-1.966-2.032-2.318a5 5 0 0 0-.722-.21 3 3 0 1 1 0-2.33q.36-.075.722-.21c.947-.352 1.773-1 2.032-2.318.428-2.182 1.894-3.284 3.296-3.807.856-.318 1.714-.434 2.347-.476a3.001 3.001 0 1 1 .018 2.004M4 10a1 1 0 1 0 0 .002zm13 8a1 1 0 1 0 0-2 1 1 0 0 0 0 2"/>
</svg>
